Newaita-dark/apps/scalable/visual-studio-code.svg

<?xml version="1.0" encoding="UTF-8"?>
<svg xmlns="http://www.w3.org/2000/svg" xmlns:xlink="http://www.w3.org/1999/xlink" width="512pt" height="512pt" viewBox="0 0 512 512" version="1.1">
<defs>
<linearGradient id="linear0" gradientUnits="userSpaceOnUse" x1="254" y1="233.5" x2="254" y2="254.666672" gradientTransform="matrix(1.000095,0,0,1.000095,-0.000061041,215.020562)">
<stop offset="0" style="stop-color:rgb(0%,0%,0%);stop-opacity:0.27451;"/>
<stop offset="1" style="stop-color:rgb(0%,0%,0%);stop-opacity:0;"/>
</linearGradient>
<radialGradient id="radial0" gradientUnits="userSpaceOnUse" cx="450.908936" cy="189.579361" fx="450.908936" fy="189.579361" r="21.166656" gradientTransform="matrix(0.00000278673,-1.250119,-2.250215,-0.00000162462,849.966879,1017.525321)">
<stop offset="0" style="stop-color:rgb(0%,0%,0%);stop-opacity:0.313725;"/>
<stop offset="0.222222" style="stop-color:rgb(0%,0%,0%);stop-opacity:0.27451;"/>
<stop offset="1" style="stop-color:rgb(0%,0%,0%);stop-opacity:0;"/>
</radialGradient>
<radialGradient id="radial1" gradientUnits="userSpaceOnUse" cx="450.908936" cy="189.579361" fx="450.908936" fy="189.579361" r="21.166656" gradientTransform="matrix(-0.00000278673,1.250119,2.250215,0.00000162462,-339.272325,-120.439662)">
<stop offset="0" style="stop-color:rgb(0%,0%,0%);stop-opacity:0.313725;"/>
<stop offset="0.222222" style="stop-color:rgb(0%,0%,0%);stop-opacity:0.27451;"/>
<stop offset="1" style="stop-color:rgb(0%,0%,0%);stop-opacity:0;"/>
</radialGradient>
<radialGradient id="radial2" gradientUnits="userSpaceOnUse" cx="450.908936" cy="189.579361" fx="450.908936" fy="189.579361" r="21.166656" gradientTransform="matrix(-0.00000278673,-1.250119,2.250215,-0.00000162462,-339.272325,1017.525321)">
<stop offset="0" style="stop-color:rgb(0%,0%,0%);stop-opacity:0.313725;"/>
<stop offset="0.222222" style="stop-color:rgb(0%,0%,0%);stop-opacity:0.27451;"/>
<stop offset="1" style="stop-color:rgb(0%,0%,0%);stop-opacity:0;"/>
</radialGradient>
<radialGradient id="radial3" gradientUnits="userSpaceOnUse" cx="450.908936" cy="189.579361" fx="450.908936" fy="189.579361" r="21.166656" gradientTransform="matrix(0.00000278673,1.250119,-2.250215,0.00000162462,849.966856,-120.43967)">
<stop offset="0" style="stop-color:rgb(0%,0%,0%);stop-opacity:0.313725;"/>
<stop offset="0.222222" style="stop-color:rgb(0%,0%,0%);stop-opacity:0.27451;"/>
<stop offset="1" style="stop-color:rgb(0%,0%,0%);stop-opacity:0;"/>
</radialGradient>
<linearGradient id="linear1" gradientUnits="userSpaceOnUse" x1="275.166656" y1="-803.666687" x2="285.75" y2="233.5" gradientTransform="matrix(1.000095,0,0,1.000095,0,215.020531)">
<stop offset="0" style="stop-color:rgb(25.882353%,25.882353%,25.882353%);stop-opacity:1;"/>
<stop offset="1" style="stop-color:rgb(38.039216%,38.039216%,38.039216%);stop-opacity:1;"/>
</linearGradient>
<linearGradient id="linear2" gradientUnits="userSpaceOnUse" x1="254" y1="233.5" x2="254" y2="-697.833313" >
<stop offset="0" style="stop-color:rgb(25.882353%,25.882353%,25.882353%);stop-opacity:1;"/>
<stop offset="1" style="stop-color:rgb(38.039216%,38.039216%,38.039216%);stop-opacity:1;"/>
</linearGradient>
<linearGradient id="linear3" gradientUnits="userSpaceOnUse" x1="960" y1="1295.118164" x2="960" y2="535.118103" >
<stop offset="0" style="stop-color:rgb(39.215686%,70.980392%,96.470588%);stop-opacity:1;"/>
<stop offset="1" style="stop-color:rgb(56.470588%,79.215686%,97.647059%);stop-opacity:1;"/>
</linearGradient>
<linearGradient id="linear4" gradientUnits="userSpaceOnUse" x1="254" y1="127.666656" x2="254" y2="-73.416664" >
<stop offset="0" style="stop-color:rgb(25.882353%,64.705882%,96.078431%);stop-opacity:1;"/>
<stop offset="1" style="stop-color:rgb(39.215686%,70.980392%,96.470588%);stop-opacity:1;"/>
</linearGradient>
</defs>
<g id="surface1">
<path style=" stroke:none;fill-rule:nonzero;fill:url(#linear0);" d="M 82.027344 448.542969 L 428.664062 448.542969 L 428.664062 469.710938 L 82.027344 469.710938 Z M 82.027344 448.542969 "/>
<path style=" stroke:none;fill-rule:nonzero;fill:url(#radial0);" d="M 428.664062 448.542969 L 471.003906 448.542969 L 471.003906 427.375 L 428.664062 427.375 Z M 428.664062 448.542969 "/>
<path style=" stroke:none;fill-rule:nonzero;fill:url(#radial1);" d="M 82.027344 448.542969 L 39.691406 448.542969 L 39.691406 469.710938 L 82.027344 469.710938 Z M 82.027344 448.542969 "/>
<path style=" stroke:none;fill-rule:nonzero;fill:url(#radial2);" d="M 82.027344 448.542969 L 39.691406 448.542969 L 39.691406 427.375 L 82.027344 427.375 Z M 82.027344 448.542969 "/>
<path style=" stroke:none;fill-rule:nonzero;fill:url(#radial3);" d="M 428.664062 448.542969 L 471.003906 448.542969 L 471.003906 469.710938 L 428.664062 469.710938 Z M 428.664062 448.542969 "/>
<path style=" stroke:none;fill-rule:nonzero;fill:url(#linear1);" d="M 58.214844 46.335938 L 449.835938 46.335938 C 458.601562 46.335938 465.710938 53.445312 465.710938 62.214844 L 465.710938 432.667969 C 465.710938 441.433594 458.601562 448.542969 449.835938 448.542969 L 58.214844 448.542969 C 49.445312 448.542969 42.335938 441.433594 42.335938 432.667969 L 42.335938 62.214844 C 42.335938 53.445312 49.445312 46.335938 58.214844 46.335938 Z M 58.214844 46.335938 "/>
<path style=" stroke:none;fill-rule:nonzero;fill:rgb(100%,100%,100%);fill-opacity:0.392157;" d="M 58.214844 46.335938 C 49.417969 46.335938 42.335938 53.417969 42.335938 62.214844 L 42.335938 64.859375 C 42.335938 56.066406 49.417969 48.984375 58.214844 48.984375 L 449.835938 48.984375 C 458.628906 48.984375 465.710938 56.066406 465.710938 64.859375 L 465.710938 62.214844 C 465.710938 53.417969 458.628906 46.335938 449.835938 46.335938 Z M 58.214844 46.335938 "/>
<path style=" stroke:none;fill-rule:nonzero;fill:rgb(1.176471%,1.176471%,1.176471%);fill-opacity:0.235294;" d="M 58.214844 448.539062 C 49.417969 448.539062 42.335938 441.457031 42.335938 432.664062 L 42.335938 430.015625 C 42.335938 438.8125 49.417969 445.894531 58.214844 445.894531 L 449.835938 445.894531 C 458.628906 445.894531 465.710938 438.8125 465.710938 430.015625 L 465.710938 432.664062 C 465.710938 441.457031 458.628906 448.539062 449.835938 448.539062 Z M 58.214844 448.539062 "/>
<path style=" stroke:none;fill-rule:nonzero;fill:rgb(12.941177%,12.941177%,12.941177%);fill-opacity:1;" d="M 58.214844 44.839844 C 48.613281 44.839844 40.835938 52.613281 40.835938 62.214844 L 40.835938 432.667969 C 40.835938 442.265625 48.613281 450.042969 58.214844 450.042969 L 449.832031 450.042969 C 459.433594 450.042969 467.210938 442.265625 467.210938 432.667969 L 467.210938 62.214844 C 467.210938 52.613281 459.433594 44.839844 449.832031 44.839844 Z M 58.214844 47.839844 L 449.832031 47.839844 C 457.824219 47.839844 464.210938 54.222656 464.210938 62.214844 L 464.210938 432.667969 C 464.210938 440.65625 457.824219 447.042969 449.832031 447.042969 L 58.214844 447.042969 C 50.222656 447.042969 43.839844 440.65625 43.839844 432.667969 L 43.839844 62.214844 C 43.839844 54.222656 50.222656 47.839844 58.214844 47.839844 Z M 58.214844 47.839844 "/>
<path style="fill-rule:nonzero;fill:url(#linear2);stroke-width:3;stroke-linecap:round;stroke-linejoin:round;stroke:rgb(12.941177%,12.941177%,12.941177%);stroke-opacity:1;stroke-miterlimit:4;" d="M 105.833643 -115.751665 L 402.16472 -115.751665 C 408.011818 -115.751665 412.749647 -111.009931 412.749647 -105.166739 L 412.749647 169.998391 C 412.749647 175.845489 408.011818 180.583317 402.16472 180.583317 L 105.833643 180.583317 C 99.986546 180.583317 95.248717 175.845489 95.248717 169.998391 L 95.248717 -105.166739 C 95.248717 -111.009931 99.986546 -115.751665 105.833643 -115.751665 Z M 105.833643 -115.751665 " transform="matrix(1.000095,0,0,1.000095,0,215.020531)"/>
<path style="fill-rule:nonzero;fill:url(#linear3);stroke-width:11.338583;stroke-linecap:round;stroke-linejoin:round;stroke:rgb(12.941177%,12.941177%,12.941177%);stroke-opacity:1;stroke-miterlimit:4;" d="M 680.146699 535.047359 C 670.182099 534.944022 659.981301 538.575565 651.714373 546.842493 L 571.717087 626.839779 C 564.217803 634.339063 560.010527 644.510337 560.010527 655.124481 L 560.010527 1175.114222 C 560.010527 1185.728366 564.217803 1195.89964 571.717087 1203.398924 L 651.714373 1283.39621 C 667.332962 1299.014798 692.665189 1299.014798 708.283777 1283.39621 L 720.0051 1271.68965 L 1200.003579 791.691171 L 1200.003579 1038.370383 L 1355.377529 1193.759096 C 1358.389053 1188.060821 1359.998151 1181.668714 1359.998151 1175.114222 L 1359.998151 655.124481 C 1359.998151 644.510337 1355.776113 634.339063 1348.276829 626.839779 L 1268.279543 546.842493 C 1260.927882 539.47607 1250.992807 535.283557 1240.585335 535.135933 C 1229.77928 534.973547 1219.357047 539.195585 1211.710139 546.842493 L 720.0051 1038.547532 C 720.0051 948.334685 720.0051 998.187211 720.0051 575.112433 C 719.990337 551.18263 700.548295 535.268794 680.146699 535.047359 Z M 1208.801952 1280.310875 C 1210.484862 1282.362844 1212.359683 1284.237665 1214.39689 1285.891051 Z M 1208.801952 1280.310875 " transform="matrix(0.264609,0,0,0.264609,0,0)"/>
<path style="fill-rule:nonzero;fill:url(#linear4);stroke-width:3;stroke-linecap:round;stroke-linejoin:round;stroke:rgb(12.941177%,12.941177%,12.941177%);stroke-opacity:1;stroke-miterlimit:4;" d="M 179.760178 -73.415864 C 177.01044 -73.3729 174.381785 -72.263631 172.432752 -70.314598 L 151.266805 -49.148651 C 149.282619 -47.164465 148.169444 -44.473316 148.169444 -41.66499 L 148.169444 95.915622 C 148.169444 98.723947 149.282619 101.415096 151.266805 103.399282 L 172.432752 124.565229 C 179.100084 131.228656 190.497433 126.510356 190.501339 117.085475 L 190.501339 -5.531722 L 320.598291 124.565229 C 324.734614 128.697647 331.433193 128.697647 335.565611 124.565229 L 356.731559 103.399282 C 358.715744 101.415096 359.832825 98.723947 359.832825 95.915622 L 359.832825 -41.66499 C 359.832825 -44.473316 358.715744 -47.164465 356.731559 -49.148651 L 335.565611 -70.314598 C 328.898279 -76.98193 317.504836 -72.259725 317.50093 -62.834844 C 317.50093 49.103686 317.50093 35.913539 317.50093 59.782353 L 187.400073 -70.314598 C 185.376829 -72.337842 182.623185 -73.454923 179.760178 -73.415864 Z M 179.760178 -73.415864 " transform="matrix(1.000095,0,0,1.000095,0,215.020531)"/>
</g>
</svg>

<svg xmlns="http://www.w3.org/2000/svg" width="512pt" height="512pt" viewBox="0 0 512 512"><defs><linearGradient id="a" gradientUnits="userSpaceOnUse" x1="254" y1="233.5" x2="254" y2="254.667" gradientTransform="matrix(1.0001 0 0 1.0001 0 215.02)"><stop offset="0" stop-opacity=".275"/><stop offset="1" stop-opacity="0"/></linearGradient><radialGradient id="b" gradientUnits="userSpaceOnUse" cx="450.909" cy="189.579" fx="450.909" fy="189.579" r="21.167" gradientTransform="matrix(0 -1.25012 -2.25021 0 849.967 1017.525)"><stop offset="0" stop-opacity=".314"/><stop offset=".222" stop-opacity=".275"/><stop offset="1" stop-opacity="0"/></radialGradient><radialGradient id="c" gradientUnits="userSpaceOnUse" cx="450.909" cy="189.579" fx="450.909" fy="189.579" r="21.167" gradientTransform="matrix(0 1.25012 2.25021 0 -339.272 -120.44)"><stop offset="0" stop-opacity=".314"/><stop offset=".222" stop-opacity=".275"/><stop offset="1" stop-opacity="0"/></radialGradient><radialGradient id="d" gradientUnits="userSpaceOnUse" cx="450.909" cy="189.579" fx="450.909" fy="189.579" r="21.167" gradientTransform="matrix(0 -1.25012 2.25021 0 -339.272 1017.525)"><stop offset="0" stop-opacity=".314"/><stop offset=".222" stop-opacity=".275"/><stop offset="1" stop-opacity="0"/></radialGradient><radialGradient id="e" gradientUnits="userSpaceOnUse" cx="450.909" cy="189.579" fx="450.909" fy="189.579" r="21.167" gradientTransform="matrix(0 1.25012 -2.25021 0 849.967 -120.44)"><stop offset="0" stop-opacity=".314"/><stop offset=".222" stop-opacity=".275"/><stop offset="1" stop-opacity="0"/></radialGradient><linearGradient id="f" gradientUnits="userSpaceOnUse" x1="275.167" y1="-803.667" x2="285.75" y2="233.5" gradientTransform="matrix(1.0001 0 0 1.0001 0 215.02)"><stop offset="0" stop-color="#424242"/><stop offset="1" stop-color="#616161"/></linearGradient><linearGradient id="g" gradientUnits="userSpaceOnUse" x1="254" y1="233.5" x2="254" y2="-697.833"><stop offset="0" stop-color="#424242"/><stop offset="1" stop-color="#616161"/></linearGradient><linearGradient id="h" gradientUnits="userSpaceOnUse" x1="960" y1="1295.118" x2="960" y2="535.118"><stop offset="0" stop-color="#64b5f6"/><stop offset="1" stop-color="#90caf9"/></linearGradient><linearGradient id="i" gradientUnits="userSpaceOnUse" x1="254" y1="127.667" x2="254" y2="-73.417"><stop offset="0" stop-color="#42a5f5"/><stop offset="1" stop-color="#64b5f6"/></linearGradient></defs><path d="M82.027 448.543h346.637v21.168H82.027zm0 0" fill="url(#a)"/><path d="M428.664 448.543h42.34v-21.168h-42.34zm0 0" fill="url(#b)"/><path d="M82.027 448.543H39.691v21.168h42.336zm0 0" fill="url(#c)"/><path d="M82.027 448.543H39.691v-21.168h42.336zm0 0" fill="url(#d)"/><path d="M428.664 448.543h42.34v21.168h-42.34zm0 0" fill="url(#e)"/><path d="M58.215 46.336h391.62c8.767 0 15.876 7.11 15.876 15.879v370.453c0 8.766-7.11 15.875-15.875 15.875H58.215c-8.77 0-15.88-7.11-15.88-15.875V62.215c0-8.77 7.11-15.88 15.88-15.88zm0 0" fill="url(#f)"/><path d="M58.215 46.336a15.844 15.844 0 0 0-15.88 15.879v2.644a15.843 15.843 0 0 1 15.88-15.875h391.62a15.843 15.843 0 0 1 15.876 15.875v-2.644a15.843 15.843 0 0 0-15.875-15.88zm0 0" fill="#fff" fill-opacity=".392"/><path d="M58.215 448.54a15.843 15.843 0 0 1-15.88-15.876v-2.648a15.844 15.844 0 0 0 15.88 15.879h391.62a15.843 15.843 0 0 0 15.876-15.88v2.65a15.843 15.843 0 0 1-15.875 15.874zm0 0" fill="#030303" fill-opacity=".235"/><path d="M58.215 44.84c-9.602 0-17.38 7.773-17.38 17.375v370.453c0 9.598 7.778 17.375 17.38 17.375h391.617c9.602 0 17.379-7.777 17.379-17.375V62.215c0-9.602-7.777-17.375-17.379-17.375zm0 3h391.617a14.31 14.31 0 0 1 14.379 14.375v370.453a14.313 14.313 0 0 1-14.379 14.375H58.215a14.31 14.31 0 0 1-14.375-14.375V62.215A14.308 14.308 0 0 1 58.215 47.84zm0 0" fill="#212121"/><path d="M105.834-115.752h296.33c5.848 0 10.586 4.742 10.586 10.585v275.165c0 5.847-4.738 10.585-10.585 10.585H105.834c-5.847 0-10.585-4.738-10.585-10.585v-275.165c0-5.843 4.738-10.585 10.585-10.585zm0 0" transform="matrix(1.0001 0 0 1.0001 0 215.02)" fill="url(#g)" stroke-width="3" stroke-linecap="round" stroke-linejoin="round" stroke="#212121"/><path d="M680.147 535.047c-9.965-.103-20.166 3.529-28.433 11.795l-79.997 79.998a39.988 39.988 0 0 0-11.706 28.284v519.99a39.988 39.988 0 0 0 11.706 28.285l79.997 79.997c15.619 15.619 40.951 15.619 56.57 0l11.721-11.706 479.999-479.999v246.68l155.374 155.388a39.893 39.893 0 0 0 4.62-18.645v-519.99a40.002 40.002 0 0 0-11.721-28.284l-79.997-79.998a39.91 39.91 0 0 0-27.695-11.706 39.994 39.994 0 0 0-28.875 11.706l-491.705 491.706V575.112c-.015-23.93-19.457-39.843-39.858-40.065zm528.655 745.264a39.193 39.193 0 0 0 5.595 5.58zm0 0" transform="rotate(.158) scale(.26461)" fill="url(#h)" stroke-width="11.339" stroke-linecap="round" stroke-linejoin="round" stroke="#212121"/><path d="M179.76-73.416a10.595 10.595 0 0 0-7.327 3.101l-21.166 21.166a10.58 10.58 0 0 0-3.098 7.484v137.58c0 2.809 1.114 5.5 3.098 7.484l21.166 21.166c6.667 6.664 18.064 1.945 18.068-7.48V-5.532l130.097 130.097c4.137 4.133 10.835 4.133 14.968 0l21.166-21.166a10.584 10.584 0 0 0 3.1-7.483V-41.665c0-2.808-1.116-5.5-3.1-7.484l-21.166-21.166c-6.668-6.667-18.061-1.945-18.065 7.48V59.782L187.4-70.315a10.595 10.595 0 0 0-7.64-3.1zm0 0" transform="matrix(1.0001 0 0 1.0001 0 215.02)" fill="url(#i)" stroke-width="3" stroke-linecap="round" stroke-linejoin="round" stroke="#212121"/></svg>
